src/cmd/32/insertneutralparagraph.svg

<svg viewBox="0 0 32 32" xmlns="http://www.w3.org/2000/svg"><path d="m4 4v1h1v4h-1v1h3v-1h-1v-4h1v-1h-1-1zm7 0v1h17v-1zm0 3v1h13v-1zm-7 15v1h1v4h-1v1h5v-1h-1v-4h1v-1h-3-1zm7 0v1h17v-1zm-5 1h1v4h-1zm5 2v1h11v-1zm13 1v1h4v-1z" fill="#232629"/><path d="m11 14v1h17v-1zm0 3v1h4v-1zm8 0v1h9v-1z" fill="#762572"/></svg>

<?xml version="1.0" encoding="UTF-8" standalone="no"?>
<svg
   xmlns:dc="http://purl.org/dc/elements/1.1/"
   xmlns:cc="http://creativecommons.org/ns#"
   xmlns:rdf="http://www.w3.org/1999/02/22-rdf-syntax-ns#"
   xmlns:svg="http://www.w3.org/2000/svg"
   xmlns="http://www.w3.org/2000/svg"
   xmlns:sodipodi="http://sodipodi.sourceforge.net/DTD/sodipodi-0.dtd"
   xmlns:inkscape="http://www.inkscape.org/namespaces/inkscape"
   viewBox="0 0 32 32"
   version="1.1"
   id="svg6"
   sodipodi:docname="insertneutralparagraph.svg"
   inkscape:version="0.92.4 (5da689c313, 2019-01-14)">
  <metadata
     id="metadata12">
    <rdf:RDF>
      <cc:Work
         rdf:about="">
        <dc:format>image/svg+xml</dc:format>
        <dc:type
           rdf:resource="http://purl.org/dc/dcmitype/StillImage" />
      </cc:Work>
    </rdf:RDF>
  </metadata>
  <defs
     id="defs10" />
  <sodipodi:namedview
     pagecolor="#ffffff"
     bordercolor="#666666"
     borderopacity="1"
     objecttolerance="10"
     gridtolerance="10"
     guidetolerance="10"
     inkscape:pageopacity="0"
     inkscape:pageshadow="2"
     inkscape:window-width="1920"
     inkscape:window-height="1011"
     id="namedview8"
     showgrid="true"
     inkscape:zoom="20.85965"
     inkscape:cx="9.4599739"
     inkscape:cy="15.73982"
     inkscape:window-x="0"
     inkscape:window-y="32"
     inkscape:window-maximized="1"
     inkscape:current-layer="svg6">
    <inkscape:grid
       type="xygrid"
       id="grid822" />
  </sodipodi:namedview>
  <path
     d="M 4,4 V 5 H 5 V 9 H 4 v 1 H 7 V 9 H 6 V 5 H 7 V 4 H 6 5 Z m 7,0 V 5 H 28 V 4 Z m 0,3 V 8 H 28 V 7 Z M 4,22 v 1 h 1 v 4 H 4 v 1 H 9 V 27 H 8 V 23 H 9 V 22 H 6 5 Z m 7,0 v 1 h 17 v -1 z m -5,1 h 1 v 4 H 6 Z m 5,2 v 1 h 17 v -1 z"
     id="path2"
     inkscape:connector-curvature="0"
     style="fill:#232629"
     sodipodi:nodetypes="ccccccccccccccccccccccccccccccccccccccccccccccccccccccc" />
  <path
     d="m 11,14 v 1 h 17 v -1 z m 0,3 v 1 h 17 v -1 z"
     id="path4"
     inkscape:connector-curvature="0"
     style="fill:#762572"
     sodipodi:nodetypes="cccccccccc" />
</svg>
